static/img/kroki/a2cb70943e96d7986448f215a0b6dc55.svg

<?xml version="1.0" encoding="us-ascii" standalone="no"?><svg xmlns="http://www.w3.org/2000/svg" xmlns:xlink="http://www.w3.org/1999/xlink" contentStyleType="text/css" height="645px" preserveAspectRatio="none" style="width:260px;height:645px;" version="1.1" viewBox="0 0 260 645" width="260px" zoomAndPan="magnify"><defs/><g><!--class aws_organizational_root--><g id="elem_aws_organizational_root"><rect codeLine="23" fill="#3D176E" height="39.7891" id="aws_organizational_root" rx="2.5" ry="2.5" style="stroke:#000D19;stroke-width:0.5;" width="246" x="7" y="599.55"/><ellipse cx="22" cy="619.4445" fill="#ADD1B2" rx="11" ry="11" style="stroke:#181818;stroke-width:1.0;"/><path d="M24.9688,625.0852 Q24.3906,625.382 23.75,625.5227 Q23.1094,625.6789 22.4063,625.6789 Q19.9063,625.6789 18.5781,624.0383 Q17.2656,622.382 17.2656,619.257 Q17.2656,616.132 18.5781,614.4758 Q19.9063,612.8195 22.4063,612.8195 Q23.1094,612.8195 23.75,612.9758 Q24.4063,613.132 24.9688,613.4289 L24.9688,616.1477 Q24.3438,615.5695 23.75,615.3039 Q23.1563,615.0227 22.5313,615.0227 Q21.1875,615.0227 20.5,616.1008 Q19.8125,617.1633 19.8125,619.257 Q19.8125,621.3508 20.5,622.4289 Q21.1875,623.4914 22.5313,623.4914 Q23.1563,623.4914 23.75,623.2258 Q24.3438,622.9445 24.9688,622.3664 L24.9688,625.0852 Z " fill="#000000"/><text fill="#D9B8FF" font-family="Helvetica" font-size="17" lengthAdjust="spacing" textLength="204" x="41" y="625.3298">aws_organizational_root</text></g><!--class organizational_root--><g id="elem_organizational_root"><rect codeLine="26" fill="#3D176E" height="39.7891" id="organizational_root" rx="2.5" ry="2.5" style="stroke:#000D19;stroke-width:0.5;" width="204" x="28" y="438.76"/><ellipse cx="43" cy="458.6545" fill="#ADD1B2" rx="11" ry="11" style="stroke:#181818;stroke-width:1.0;"/><path d="M45.9688,464.2952 Q45.3906,464.592 44.75,464.7327 Q44.1094,464.8889 43.4063,464.8889 Q40.9063,464.8889 39.5781,463.2483 Q38.2656,461.592 38.2656,458.467 Q38.2656,455.342 39.5781,453.6858 Q40.9063,452.0295 43.4063,452.0295 Q44.1094,452.0295 44.75,452.1858 Q45.4063,452.342 45.9688,452.6389 L45.9688,455.3577 Q45.3438,454.7795 44.75,454.5139 Q44.1563,454.2327 43.5313,454.2327 Q42.1875,454.2327 41.5,455.3108 Q40.8125,456.3733 40.8125,458.467 Q40.8125,460.5608 41.5,461.6389 Q42.1875,462.7014 43.5313,462.7014 Q44.1563,462.7014 44.75,462.4358 Q45.3438,462.1545 45.9688,461.5764 L45.9688,464.2952 Z " fill="#000000"/><text fill="#D9B8FF" font-family="Helvetica" font-size="17" lengthAdjust="spacing" textLength="162" x="62" y="464.5398">organizational_root</text></g><!--class resource--><g id="elem_resource"><rect codeLine="29" fill="#3D176E" height="310.7578" id="resource" rx="2.5" ry="2.5" style="stroke:#000D19;stroke-width:0.5;" width="227" x="16.5" y="7"/><ellipse cx="85.25" cy="26.8945" fill="#ADD1B2" rx="11" ry="11" style="stroke:#181818;stroke-width:1.0;"/><path d="M88.2188,32.5352 Q87.6406,32.832 87,32.9727 Q86.3594,33.1289 85.6563,33.1289 Q83.1563,33.1289 81.8281,31.4883 Q80.5156,29.832 80.5156,26.707 Q80.5156,23.582 81.8281,21.9258 Q83.1563,20.2695 85.6563,20.2695 Q86.3594,20.2695 87,20.4258 Q87.6563,20.582 88.2188,20.8789 L88.2188,23.5977 Q87.5938,23.0195 87,22.7539 Q86.4063,22.4727 85.7813,22.4727 Q84.4375,22.4727 83.75,23.5508 Q83.0625,24.6133 83.0625,26.707 Q83.0625,28.8008 83.75,29.8789 Q84.4375,30.9414 85.7813,30.9414 Q86.4063,30.9414 87,30.6758 Q87.5938,30.3945 88.2188,29.8164 L88.2188,32.5352 Z " fill="#000000"/><text fill="#D9B8FF" font-family="Helvetica" font-size="17" lengthAdjust="spacing" textLength="71" x="110.75" y="32.7798">resource</text><line style="stroke:#000D19;stroke-width:0.5;" x1="17.5" x2="242.5" y1="46.7891" y2="46.7891"/><text fill="#D9B8FF" font-family="sans-serif" font-size="14" font-weight="bold" lengthAdjust="spacing" textLength="29" x="27.5" y="68.7842">age</text><text fill="#D9B8FF" font-family="sans-serif" font-size="14" lengthAdjust="spacing" textLength="66" x="56.5" y="68.7842">: duration</text><text fill="#D9B8FF" font-family="sans-serif" font-size="14" font-weight="bold" lengthAdjust="spacing" textLength="43" x="27.5" y="95.0811">atime</text><text fill="#D9B8FF" font-family="sans-serif" font-size="14" lengthAdjust="spacing" textLength="70" x="70.5" y="95.0811">: datetime</text><text fill="#D9B8FF" font-family="sans-serif" font-size="14" font-weight="bold" lengthAdjust="spacing" textLength="43" x="27.5" y="121.3779">ctime</text><text fill="#D9B8FF" font-family="sans-serif" font-size="14" lengthAdjust="spacing" textLength="70" x="70.5" y="121.3779">: datetime</text><text fill="#D9B8FF" font-family="sans-serif" font-size="14" font-weight="bold" lengthAdjust="spacing" textLength="14" x="27.5" y="147.6748">id</text><text fill="#D9B8FF" font-family="sans-serif" font-size="14" lengthAdjust="spacing" textLength="48" x="41.5" y="147.6748">: string</text><text fill="#D9B8FF" font-family="sans-serif" font-size="14" font-weight="bold" lengthAdjust="spacing" textLength="33" x="27.5" y="173.9717">kind</text><text fill="#D9B8FF" font-family="sans-serif" font-size="14" lengthAdjust="spacing" textLength="48" x="60.5" y="173.9717">: string</text><text fill="#D9B8FF" font-family="sans-serif" font-size="14" font-weight="bold" lengthAdjust="spacing" textLength="90" x="27.5" y="200.2686">last_access</text><text fill="#D9B8FF" font-family="sans-serif" font-size="14" lengthAdjust="spacing" textLength="66" x="117.5" y="200.2686">: duration</text><text fill="#D9B8FF" font-family="sans-serif" font-size="14" font-weight="bold" lengthAdjust="spacing" textLength="90" x="27.5" y="226.5654">last_update</text><text fill="#D9B8FF" font-family="sans-serif" font-size="14" lengthAdjust="spacing" textLength="66" x="117.5" y="226.5654">: duration</text><text fill="#D9B8FF" font-family="sans-serif" font-size="14" font-weight="bold" lengthAdjust="spacing" textLength="48" x="27.5" y="252.8623">mtime</text><text fill="#D9B8FF" font-family="sans-serif" font-size="14" lengthAdjust="spacing" textLength="70" x="75.5" y="252.8623">: datetime</text><text fill="#D9B8FF" font-family="sans-serif" font-size="14" font-weight="bold" lengthAdjust="spacing" textLength="43" x="27.5" y="279.1592">name</text><text fill="#D9B8FF" font-family="sans-serif" font-size="14" lengthAdjust="spacing" textLength="48" x="70.5" y="279.1592">: string</text><text fill="#D9B8FF" font-family="sans-serif" font-size="14" font-weight="bold" lengthAdjust="spacing" textLength="34" x="27.5" y="305.4561">tags</text><text fill="#D9B8FF" font-family="sans-serif" font-size="14" lengthAdjust="spacing" textLength="171" x="61.5" y="305.4561">: dictionary[string, string]</text></g><!--reverse link organizational_root to aws_organizational_root--><g id="link_organizational_root_aws_organizational_root"><path codeLine="41" d="M130,496.81 C130,527.33 130,568.66 130,599.22 " fill="none" id="organizational_root-backto-aws_organizational_root" style="stroke:#FFAF37;stroke-width:2.0;"/><polygon fill="none" points="130,478.81,124,496.81,136,496.81,130,478.81" style="stroke:#FFAF37;stroke-width:2.0;"/></g><!--reverse link resource to organizational_root--><g id="link_resource_organizational_root"><path codeLine="42" d="M130,335.85 C130,384.14 130,413.37 130,438.68 " fill="none" id="resource-backto-organizational_root" style="stroke:#FFAF37;stroke-width:2.0;"/><polygon fill="none" points="130,317.85,124,335.85,136,335.85,130,317.85" style="stroke:#FFAF37;stroke-width:2.0;"/></g><!--SRC=[XP91Jy9048Nl_HMRU6ia0Oa2nWkI6BqG8zwC8SFkj6neTydiL0BgVtVR8YbjWLlxtfUPzoQxr0e5fclUYXJJ1P8Bt4gRDH2aOanaDnERM19NKGHHVr0tdwpXYy0KKXJFc7mXQmbrudsfvSgWS-AcOZs2NCLaCwFAyKnWdBVGS8MQ9E3Sc9dq8cEiX56ZnJ2AwcHzw5LVzGPtsC0iAQGzqkrsLMzKHowkEjlxGCpq3aMlUhIfPMp4RAmegBCfSw8Iib7qtp-PyHMKqYOMjnNjhSn41kb8dor1sKrEHv2uwXh7I6XvkyP9enMEXYeQjC8lf-10vgSJi75pIp4OlGFMra0o9sjPV0V1xnwvO1Cwcv54huKXn1Y6zq9bLE2vmZejDM3ClxqcMpIjSi7v1sXY_-kh70j-5yz1Il-yQniA9rldisfEshB7G2aT1ZF4vKGjYuQq_IYzwptpwQkstU3XfzFfd3fWS3XBYRKXVm00]--></g></svg>

<svg xmlns="http://www.w3.org/2000/svg" width="260" height="645" viewBox="0 0 260 645"><rect width="246" height="39.789" x="7" y="599.55" fill="#3D176E" rx="2.5" ry="2.5" style="stroke:#000d19;stroke-width:.5"/><circle cx="22" cy="619.444" r="11" fill="#ADD1B2" style="stroke:#181818;stroke-width:1"/><path d="M24.969 625.085q-.578.297-1.219.438-.64.156-1.344.156-2.5 0-3.828-1.64-1.312-1.657-1.312-4.782t1.312-4.781q1.328-1.657 3.828-1.657.703 0 1.344.157.656.156 1.219.453v2.719q-.625-.579-1.219-.844-.594-.281-1.219-.281-1.343 0-2.031 1.078-.687 1.062-.687 3.156t.687 3.172q.688 1.062 2.031 1.062.625 0 1.219-.265.594-.282 1.219-.86z"/><text x="41" y="625.33" fill="#D9B8FF" font-family="Helvetica" font-size="17" textLength="204">aws_organizational_root</text><rect width="204" height="39.789" x="28" y="438.76" fill="#3D176E" rx="2.5" ry="2.5" style="stroke:#000d19;stroke-width:.5"/><circle cx="43" cy="458.654" r="11" fill="#ADD1B2" style="stroke:#181818;stroke-width:1"/><path d="M45.969 464.295q-.578.297-1.219.438-.64.156-1.344.156-2.5 0-3.828-1.64-1.312-1.657-1.312-4.782t1.312-4.781q1.328-1.656 3.828-1.656.703 0 1.344.156.656.156 1.219.453v2.719q-.625-.579-1.219-.844-.594-.281-1.219-.281-1.343 0-2.031 1.078-.687 1.062-.687 3.156t.687 3.172q.688 1.062 2.031 1.062.625 0 1.219-.265.594-.281 1.219-.86z"/><text x="62" y="464.54" fill="#D9B8FF" font-family="Helvetica" font-size="17" textLength="162">organizational_root</text><rect width="227" height="310.758" x="16.5" y="7" fill="#3D176E" rx="2.5" ry="2.5" style="stroke:#000d19;stroke-width:.5"/><circle cx="85.25" cy="26.895" r="11" fill="#ADD1B2" style="stroke:#181818;stroke-width:1"/><path d="M88.219 32.535q-.578.297-1.219.438-.64.156-1.344.156-2.5 0-3.828-1.64-1.312-1.657-1.312-4.782t1.312-4.781q1.328-1.656 3.828-1.656.703 0 1.344.156.656.156 1.219.453v2.719q-.625-.578-1.219-.844-.594-.281-1.219-.281-1.344 0-2.031 1.078-.687 1.062-.687 3.156t.687 3.172q.688 1.062 2.031 1.062.625 0 1.219-.265.594-.281 1.219-.86z"/><text x="110.75" y="32.78" fill="#D9B8FF" font-family="Helvetica" font-size="17" textLength="71">resource</text><path d="M17.5 46.789h225" style="stroke:#000d19;stroke-width:.5"/><text x="27.5" y="68.784" fill="#D9B8FF" font-family="sans-serif" font-size="14" font-weight="bold" textLength="29">age</text><text x="56.5" y="68.784" fill="#D9B8FF" font-family="sans-serif" font-size="14" textLength="66">: duration</text><text x="27.5" y="95.081" fill="#D9B8FF" font-family="sans-serif" font-size="14" font-weight="bold" textLength="43">atime</text><text x="70.5" y="95.081" fill="#D9B8FF" font-family="sans-serif" font-size="14" textLength="70">: datetime</text><text x="27.5" y="121.378" fill="#D9B8FF" font-family="sans-serif" font-size="14" font-weight="bold" textLength="43">ctime</text><text x="70.5" y="121.378" fill="#D9B8FF" font-family="sans-serif" font-size="14" textLength="70">: datetime</text><text x="27.5" y="147.675" fill="#D9B8FF" font-family="sans-serif" font-size="14" font-weight="bold" textLength="14">id</text><text x="41.5" y="147.675" fill="#D9B8FF" font-family="sans-serif" font-size="14" textLength="48">: string</text><text x="27.5" y="173.972" fill="#D9B8FF" font-family="sans-serif" font-size="14" font-weight="bold" textLength="33">kind</text><text x="60.5" y="173.972" fill="#D9B8FF" font-family="sans-serif" font-size="14" textLength="48">: string</text><text x="27.5" y="200.269" fill="#D9B8FF" font-family="sans-serif" font-size="14" font-weight="bold" textLength="90">last_access</text><text x="117.5" y="200.269" fill="#D9B8FF" font-family="sans-serif" font-size="14" textLength="66">: duration</text><text x="27.5" y="226.565" fill="#D9B8FF" font-family="sans-serif" font-size="14" font-weight="bold" textLength="90">last_update</text><text x="117.5" y="226.565" fill="#D9B8FF" font-family="sans-serif" font-size="14" textLength="66">: duration</text><text x="27.5" y="252.862" fill="#D9B8FF" font-family="sans-serif" font-size="14" font-weight="bold" textLength="48">mtime</text><text x="75.5" y="252.862" fill="#D9B8FF" font-family="sans-serif" font-size="14" textLength="70">: datetime</text><text x="27.5" y="279.159" fill="#D9B8FF" font-family="sans-serif" font-size="14" font-weight="bold" textLength="43">name</text><text x="70.5" y="279.159" fill="#D9B8FF" font-family="sans-serif" font-size="14" textLength="48">: string</text><text x="27.5" y="305.456" fill="#D9B8FF" font-family="sans-serif" font-size="14" font-weight="bold" textLength="34">tags</text><text x="61.5" y="305.456" fill="#D9B8FF" font-family="sans-serif" font-size="14" textLength="171">: dictionary[string, string]</text><path fill="none" d="M130 496.81v102.41m0-120.41-6 18h12zm0-142.96v102.83m0-120.83-6 18h12z" style="stroke:#ffaf37;stroke-width:2"/></svg>
